dist/images/logo/footer_logo_02.svg

<svg width="160" height="18" viewBox="0 0 160 18" fill="none" xmlns="http://www.w3.org/2000/svg">
<g clip-path="url(#clip0_1158_36695)">
<path d="M23.9572 0H31.278L33.0301 9.06231H33.0822L40.0213 0H46.9952L42.2939 18H36.6211L38.9111 9.22255H38.859L32.6485 18H29.2136L27.3226 8.81306H27.2706L24.8419 18H19.2559L23.9572 0Z" fill="#121C3E"/>
<path d="M48.9904 0H54.8366L50.1353 18H44.2891L48.9904 0Z" fill="#121C3E"/>
<path d="M23.5758 0H16.2724L1.68275 11.5193L0 18H5.55134L6.85243 13.0326L9.59341 11.0564L13.1497 18H19.1695L13.8263 7.78042L23.5758 0Z" fill="#121C3E"/>
<path d="M14.312 0H4.70123L2.20312 9.57864L14.312 0Z" fill="#BA1D3C"/>
<path d="M56.8145 11.7329H58.3064V13.7092L59.885 11.7329H61.88L60.1106 13.6914L61.9494 16.9673H60.1106L59.087 14.813L58.3064 15.6854V16.9673H56.8145V11.7329Z" fill="#1C1C1C"/>
<path d="M61.9141 14.3498C61.9141 13.4952 62.1396 12.8364 62.5733 12.3557C63.007 11.875 63.6315 11.6436 64.4122 11.6436C65.2102 11.6436 65.8347 11.875 66.2684 12.3379C66.7021 12.8008 66.9276 13.4596 66.9276 14.2964C66.9276 14.9017 66.8235 15.4002 66.6501 15.7919C66.4592 16.1836 66.1817 16.4863 65.8174 16.6999C65.453 16.9136 65.002 17.0204 64.4816 17.0204C63.9438 17.0204 63.4754 16.9314 63.1284 16.7355C62.7641 16.5397 62.4865 16.2548 62.261 15.8453C62.0182 15.4714 61.9141 14.9729 61.9141 14.3498ZM63.406 14.3498C63.406 14.8839 63.4927 15.2578 63.6836 15.4893C63.857 15.7207 64.1173 15.8275 64.4295 15.8275C64.7591 15.8275 65.002 15.7207 65.1755 15.4893C65.349 15.2578 65.4357 14.8661 65.4357 14.2786C65.4357 13.7979 65.349 13.424 65.1581 13.2103C64.9673 12.9789 64.7244 12.872 64.4122 12.872C64.1173 12.872 63.8744 12.9789 63.6836 13.2103C63.4927 13.4418 63.406 13.8335 63.406 14.3498Z" fill="#1C1C1C"/>
<path d="M67.6562 16.9673V11.7329H70.1543C70.6227 11.7329 70.9697 11.7685 71.2126 11.8575C71.4554 11.9466 71.6463 12.1068 71.8024 12.3383C71.9585 12.5697 72.0279 12.8546 72.0279 13.1929C72.0279 13.4777 71.9759 13.727 71.8544 13.9406C71.733 14.1543 71.5769 14.3145 71.3861 14.4569C71.2646 14.546 71.0738 14.6172 70.8656 14.6706C71.0391 14.7418 71.1779 14.7952 71.2473 14.8664C71.2993 14.9199 71.3861 15.0089 71.4901 15.1513C71.5942 15.2937 71.6636 15.4006 71.6983 15.4718L72.4269 16.9851H70.7442L69.9462 15.3828C69.8421 15.1691 69.7553 15.0445 69.6686 14.9733C69.5645 14.8842 69.4431 14.8486 69.3043 14.8486H69.1655V16.9673H67.6562ZM69.1482 13.8516H69.7727C69.8421 13.8516 69.9809 13.8338 70.1717 13.7804C70.2758 13.7626 70.3452 13.7092 70.4146 13.6202C70.484 13.5311 70.5013 13.4243 70.5013 13.3175C70.5013 13.1572 70.4493 13.0148 70.3452 12.9258C70.2411 12.8368 70.0503 12.7834 69.79 12.7834H69.1308V13.8516H69.1482Z" fill="#1C1C1C"/>
<path d="M72.7754 11.7329H76.8001V12.8546H74.2847V13.6914H76.6093V14.7596H74.2847V15.7923H76.8695V16.9673H72.7754V11.7329Z" fill="#1C1C1C"/>
<path d="M80.5282 16.1127H78.8281L78.5852 16.9673H77.0586L78.8801 11.7329H80.5282L82.3324 16.9673H80.7711L80.5282 16.1127ZM80.1986 14.9733L79.6781 13.086L79.1403 14.9733H80.1986Z" fill="#1C1C1C"/>
<path d="M84.832 11.7329H86.8097L87.573 14.9199L88.3363 11.7329H90.2966V16.9673H89.0649V12.9792L88.1108 16.9673H87.0005L86.0464 12.9792V16.9673H84.832V11.7329Z" fill="#1C1C1C"/>
<path d="M91.1113 11.7329H95.136V12.8546H92.6206V13.6914H94.9452V14.7596H92.6206V15.7923H95.2054V16.9673H91.1113V11.7329Z" fill="#1C1C1C"/>
<path d="M95.916 11.7329H98.1365C98.5702 11.7329 98.9346 11.8041 99.1948 11.9288C99.4723 12.0534 99.6805 12.2492 99.8713 12.4807C100.045 12.7121 100.166 12.997 100.253 13.3175C100.34 13.638 100.374 13.9762 100.374 14.3323C100.374 14.9021 100.322 15.3293 100.201 15.632C100.08 15.9347 99.9234 16.2018 99.7152 16.4154C99.507 16.6291 99.2815 16.7537 99.0386 16.8249C98.709 16.9139 98.4141 16.9673 98.1539 16.9673H95.9334V11.7329H95.916ZM97.4079 12.908V15.7567H97.7722C98.0845 15.7567 98.31 15.721 98.4488 15.6498C98.5876 15.5786 98.6917 15.4362 98.7611 15.2581C98.8305 15.0623 98.8652 14.7774 98.8652 14.3501C98.8652 13.7982 98.7784 13.4243 98.6223 13.2107C98.4488 12.997 98.1712 12.908 97.7896 12.908H97.4079Z" fill="#1C1C1C"/>
<path d="M101.104 11.7329H102.613V16.9673H101.104V11.7329Z" fill="#1C1C1C"/>
<path d="M106.795 14.8129L108.113 15.2402C108.026 15.6319 107.887 15.9702 107.697 16.2373C107.506 16.5043 107.263 16.7002 106.985 16.8426C106.708 16.985 106.343 17.0384 105.91 17.0384C105.389 17.0384 104.956 16.9494 104.609 16.7892C104.279 16.6289 103.984 16.3263 103.741 15.9168C103.498 15.5073 103.377 14.9732 103.377 14.3144C103.377 13.442 103.585 12.7832 104.019 12.3203C104.453 11.8574 105.042 11.626 105.823 11.626C106.43 11.626 106.916 11.7684 107.263 12.0355C107.61 12.3025 107.87 12.712 108.044 13.264L106.725 13.5844C106.673 13.4242 106.621 13.3174 106.586 13.2462C106.5 13.1215 106.395 13.0325 106.274 12.9613C106.153 12.8901 106.014 12.8545 105.875 12.8545C105.528 12.8545 105.285 12.9969 105.094 13.2996C104.956 13.5132 104.886 13.8693 104.886 14.3322C104.886 14.9019 104.973 15.3114 105.129 15.5251C105.303 15.7387 105.528 15.8456 105.823 15.8456C106.118 15.8456 106.326 15.7565 106.465 15.5785C106.621 15.4005 106.725 15.1512 106.795 14.8129Z" fill="#1C1C1C"/>
<path d="M111.686 16.1127H109.986L109.743 16.9673H108.217L110.038 11.7329H111.686L113.491 16.9673H111.929L111.686 16.1127ZM111.374 14.9733L110.854 13.086L110.316 14.9733H111.374Z" fill="#1C1C1C"/>
<path d="M113.871 11.7329H115.363V15.6676H117.705V16.9495H113.871V11.7329Z" fill="#1C1C1C"/>
<path d="M120.447 11.7329H121.957V16.9673H120.447V11.7329Z" fill="#1C1C1C"/>
<path d="M122.928 11.7329H124.316L126.137 14.6172V11.7329H127.542V16.9673H126.137L124.333 14.0831V16.9673H122.928V11.7329Z" fill="#1C1C1C"/>
<path d="M128.184 15.2402L129.606 15.1512C129.641 15.4005 129.693 15.5963 129.797 15.7209C129.936 15.9168 130.161 16.0236 130.439 16.0236C130.647 16.0236 130.82 15.9702 130.925 15.8634C131.046 15.7565 131.098 15.6319 131.098 15.4895C131.098 15.347 131.046 15.2402 130.942 15.1334C130.838 15.0266 130.578 14.9197 130.179 14.8307C129.519 14.6705 129.051 14.4568 128.773 14.1898C128.496 13.9227 128.357 13.5844 128.357 13.1749C128.357 12.9079 128.426 12.6586 128.565 12.4094C128.704 12.1779 128.93 11.9821 129.207 11.8396C129.502 11.6972 129.901 11.626 130.404 11.626C131.029 11.626 131.497 11.7506 131.827 11.9999C132.156 12.2491 132.347 12.6408 132.399 13.1749L130.994 13.264C130.959 13.0325 130.873 12.8545 130.751 12.7654C130.63 12.6586 130.474 12.6052 130.248 12.6052C130.075 12.6052 129.936 12.6408 129.849 12.7298C129.762 12.8189 129.71 12.9079 129.71 13.0147C129.71 13.1037 129.745 13.1749 129.814 13.2462C129.884 13.3174 130.057 13.3886 130.317 13.442C130.977 13.6022 131.445 13.7447 131.723 13.9049C132 14.0651 132.208 14.261 132.347 14.4924C132.469 14.7239 132.538 14.9732 132.538 15.258C132.538 15.5963 132.451 15.899 132.278 16.1838C132.104 16.4687 131.861 16.6824 131.549 16.8248C131.237 16.9672 130.855 17.0384 130.387 17.0384C129.571 17.0384 128.999 16.8604 128.669 16.5221C128.392 16.2016 128.218 15.7565 128.184 15.2402Z" fill="#1C1C1C"/>
<path d="M132.867 11.7329H137.412V13.0148H135.886V16.9495H134.394V13.0148H132.867V11.7329Z" fill="#1C1C1C"/>
<path d="M138.037 11.7329H139.546V16.9673H138.037V11.7329Z" fill="#1C1C1C"/>
<path d="M140.172 11.7329H144.717V13.0148H143.19V16.9495H141.698V13.0148H140.172V11.7329Z" fill="#1C1C1C"/>
<path d="M148.429 11.7329H149.921V14.8486C149.921 15.1513 149.869 15.454 149.782 15.721C149.696 15.9881 149.557 16.2374 149.366 16.4332C149.175 16.6469 148.967 16.7893 148.776 16.8605C148.481 16.9673 148.134 17.0385 147.735 17.0385C147.492 17.0385 147.25 17.0207 146.972 16.9851C146.694 16.9495 146.452 16.8783 146.278 16.7715C146.087 16.6647 145.914 16.5222 145.758 16.3264C145.602 16.1305 145.497 15.9347 145.445 15.721C145.359 15.3828 145.307 15.0979 145.307 14.8308V11.7329H146.799V14.9199C146.799 15.2047 146.868 15.4362 147.024 15.5786C147.163 15.7388 147.371 15.8279 147.631 15.8279C147.891 15.8279 148.082 15.7388 148.238 15.5964C148.377 15.4362 148.464 15.2225 148.464 14.9199V11.7329H148.429Z" fill="#1C1C1C"/>
<path d="M150.459 11.7329H155.004V13.0148H153.478V16.9495H151.986V13.0148H150.459V11.7329Z" fill="#1C1C1C"/>
<path d="M155.559 11.7329H159.583V12.8546H157.068V13.6914H159.392V14.7596H157.068V15.7923H159.653V16.9673H155.559V11.7329Z" fill="#1C1C1C"/>
<path d="M79.8532 2.59901H78.847V0.569336H76.2969V8.20732H78.847V3.75628H79.8532V2.59901Z" fill="#1C1C1C"/>
<path d="M75.9334 4.16593C75.9334 3.50717 75.517 2.90183 74.8231 2.43893H75.7252V1.29946H72.6373V0.480469H70.0871V1.28166H66.8431L67.9013 2.42112C67.2074 2.88403 66.791 3.48937 66.791 4.14812C66.791 5.60807 68.8381 6.78314 71.3709 6.78314C73.8863 6.80094 75.9334 5.62587 75.9334 4.16593ZM69.6534 4.16593C69.6534 3.38255 70.4167 2.7594 71.3709 2.7594C72.325 2.7594 73.0883 3.38255 73.0883 4.16593C73.0883 4.93151 72.325 5.57246 71.3709 5.57246C70.4167 5.55465 69.6534 4.93151 69.6534 4.16593Z" fill="#1C1C1C"/>
<path d="M70.0345 7.15723H67.4844V9.00886C67.4844 9.632 67.9528 10.1483 68.5426 10.1483H78.8299V9.00886H70.0172V7.15723H70.0345Z" fill="#1C1C1C"/>
<path d="M124.525 7.15674H121.975V9.00837C121.975 9.63152 122.443 10.1478 123.033 10.1478H133.494V9.00837H124.525V7.15674Z" fill="#1C1C1C"/>
<path d="M130.944 0.569336V1.54856H129.452L130.51 2.68803H130.944V3.52483H129.504C129.521 3.418 129.538 3.31118 129.538 3.20435C129.538 1.74441 127.752 0.569336 125.548 0.569336C123.345 0.569336 121.541 1.74441 121.541 3.20435C121.541 4.66429 123.328 5.83937 125.548 5.83937C127.561 5.83937 129.243 4.84233 129.504 3.57824L130.527 4.6821H130.961V7.76221H133.511V0.569336H130.944ZM125.531 4.62868C124.698 4.62868 124.039 4.00554 124.039 3.22216C124.039 2.45658 124.716 1.81563 125.531 1.81563C126.364 1.81563 127.023 2.43877 127.023 3.22216C127.04 3.98773 126.364 4.62868 125.531 4.62868Z" fill="#1C1C1C"/>
<path d="M154.971 8.79507V5.82178H152.056V8.79507H146.574L147.841 10.1482H159.724V8.79507H154.971Z" fill="#1C1C1C"/>
<path d="M152.976 1.7088H154.346L158.336 6.56934H160.002L155.769 1.49515L156.636 0.569336H152.23H150.72L147.025 6.56934H150.027L152.976 1.7088Z" fill="#1C1C1C"/>
<path d="M120.603 2.59901H119.597V0.569336H117.047V6.51592H119.597V3.75628H120.603V2.59901Z" fill="#1C1C1C"/>
<path d="M107.628 3.97008C107.628 5.3232 109.588 6.40925 111.999 6.40925C114.411 6.40925 116.371 5.3232 116.371 3.97008C116.371 3.40035 116.007 2.86623 115.417 2.45673H116.441V1.29946H113.266V0.480469H110.716V1.28166H107.541L108.599 2.40332C107.992 2.84842 107.628 3.38255 107.628 3.97008ZM111.982 5.25198C111.08 5.25198 110.351 4.66444 110.351 3.95228C110.351 3.24011 111.08 2.65258 111.982 2.65258C112.884 2.65258 113.613 3.24011 113.613 3.95228C113.63 4.68225 112.884 5.25198 111.982 5.25198Z" fill="#1C1C1C"/>
<path d="M118.539 7.15723H107.801L108.859 8.29669H117.047V10.1483H119.597V8.3145C119.597 7.67355 119.129 7.15723 118.539 7.15723Z" fill="#1C1C1C"/>
<path d="M146.695 5.42987H145.481C145.897 5.42987 146.244 5.05598 146.244 4.59307V1.7088C146.244 1.06785 145.776 0.569336 145.186 0.569336H134.361L135.419 1.7088H143.694V4.59307C143.694 5.05598 143.347 5.41207 142.931 5.42987H134.17L135.228 6.56934H139.322V10.148H141.872V6.56934H146.678V5.42987H146.695Z" fill="#1C1C1C"/>
<path d="M92.795 5.07377V3.9165H80.2871L81.3453 5.05597H85.6476V6.80078H80.5994L81.6576 7.94024H89.9326V10.148H92.4827V7.95805C92.4827 7.3171 92.0143 6.81858 91.4245 6.81858H88.1978V5.07377H92.795Z" fill="#1C1C1C"/>
<path d="M89.9326 1.7088V3.07972C89.9326 3.54263 89.5856 3.91652 89.1519 3.91652H91.7021C92.1358 3.91652 92.4654 3.54263 92.4654 3.07972V1.7088C92.4654 1.06785 91.997 0.569336 91.4071 0.569336H80.582L81.6403 1.7088H89.9326Z" fill="#1C1C1C"/>
<path d="M98.4861 6.80075C101.019 6.80075 103.049 5.39423 103.049 3.66722C103.049 1.94022 101.002 0.533691 98.4861 0.533691C95.9533 0.533691 93.9062 1.94022 93.9062 3.66722C93.9062 5.39423 95.9533 6.80075 98.4861 6.80075ZM98.4861 1.8512C99.5096 1.8512 100.342 2.65239 100.342 3.64942C100.342 4.64645 99.5096 5.44764 98.4861 5.44764C97.4626 5.44764 96.6299 4.64645 96.6299 3.64942C96.6299 2.65239 97.4626 1.8512 98.4861 1.8512Z" fill="#1C1C1C"/>
<path d="M103.569 0.569336V5.75034C103.569 6.72957 102.823 7.53076 101.904 7.53076H93.334L94.3922 8.67023H102.303C102.806 8.67023 103.24 8.43877 103.552 8.06489V10.148H106.102V0.569336H103.569Z" fill="#1C1C1C"/>
<path d="M59.5042 1.26367V2.61679H59.8685V1.26367H60.6665V5.28741H59.8685V3.31115H59.5042V5.28741H58.7409V4.46842L58.2204 4.94913C58.0123 4.86011 57.8388 4.75329 57.7 4.62866C57.5959 4.53964 57.5092 4.43281 57.4398 4.32599C57.3877 4.43281 57.301 4.53964 57.1795 4.62866C57.0408 4.75329 56.8673 4.86011 56.6591 4.94913L56.1387 4.45062C56.3989 4.32599 56.6071 4.14794 56.7285 3.93429C56.8846 3.68504 56.9714 3.34676 56.9714 2.93726V1.92243H56.503V1.29928H58.3245V1.92243H57.8561V2.93726C57.8561 3.36456 57.9255 3.68504 58.0816 3.9521C58.2204 4.16575 58.4286 4.34379 58.6888 4.46842V1.26367H59.5042Z" fill="#1C1C1C"/>
<path d="M64.1874 1.29951V1.99387H62.5914V2.88408H64.4477V1.24609H65.5232V2.24313H65.9743V2.91968H65.5232V4.11256H64.4477V3.56063H62.1751C61.9669 3.56063 61.7934 3.50722 61.6893 3.4182C61.5852 3.32918 61.5332 3.18675 61.5332 3.00871V1.29951H64.1874ZM62.9731 4.59328H65.5579V5.26983H62.5567C62.3486 5.26983 62.1751 5.21642 62.071 5.1274C61.9669 5.02058 61.9149 4.89595 61.9149 4.7179V3.8455H62.9904V4.59328H62.9731Z" fill="#1C1C1C"/>
<path d="M57.5956 6.17792V6.46279H58.0813V6.17792H59.1222V6.80107H59.5212V6.12451H60.5968V8.27881H59.5212V7.49543H59.1222V8.15418H57.2139C57.0057 8.15418 56.8323 8.10077 56.7282 8.01175C56.6241 7.92273 56.5547 7.7803 56.5547 7.60226V6.17792H57.5956ZM57.8905 8.42125V8.61709H59.5385V8.42125H60.6141V10.1482H57.4741C57.266 10.1482 57.0925 10.0948 56.9884 10.0058C56.8843 9.9168 56.8323 9.77436 56.8323 9.59632V8.42125H57.8905ZM57.5956 7.12154V7.49543H58.0813V7.12154H57.5956ZM57.8905 9.25804V9.5251H59.5385V9.25804H57.8905Z" fill="#1C1C1C"/>
<path d="M63.8755 6.44469C64.1184 6.65834 64.2398 6.9254 64.2398 7.24587C64.2398 7.56635 64.1184 7.83341 63.8755 8.04706C63.6153 8.29632 63.251 8.42095 62.8173 8.42095C62.3662 8.42095 62.0193 8.29632 61.7591 8.04706C61.5162 7.83341 61.4121 7.56635 61.4121 7.24587C61.4121 6.9254 61.5335 6.65834 61.7591 6.44469C62.0193 6.19543 62.3836 6.0708 62.8173 6.0708C63.251 6.0708 63.6153 6.19543 63.8755 6.44469ZM62.8693 9.47139H65.6103V10.148H62.453C62.2275 10.148 62.0713 10.0945 61.9672 10.0055C61.8632 9.9165 61.7938 9.77406 61.7938 9.59602V8.70581H62.8693V9.47139ZM62.505 6.83638C62.4356 6.9432 62.4009 7.08564 62.4009 7.24587C62.4009 7.40611 62.4356 7.54855 62.505 7.65537C62.5744 7.78 62.6785 7.83341 62.8173 7.83341C62.9561 7.83341 63.0602 7.78 63.1295 7.65537C63.1989 7.54855 63.2336 7.42392 63.2336 7.24587C63.2336 7.08564 63.1989 6.9432 63.1295 6.83638C63.0602 6.72955 62.9387 6.65834 62.8173 6.65834C62.6785 6.65834 62.5744 6.71175 62.505 6.83638ZM65.5756 6.12421V8.99068H64.5V6.12421H65.5756Z" fill="#1C1C1C"/>
</g>
<defs>
<clipPath id="clip0_1158_36695">
<rect width="160" height="18" fill="white"/>
</clipPath>
</defs>
</svg>

<svg width="160" height="18" fill="none" xmlns="http://www.w3.org/2000/svg"><g clip-path="url(#clip0_1158_36695)"><path d="M23.957 0h7.321l1.752 9.062h.052L40.022 0h6.973l-4.701 18H36.62l2.29-8.777h-.052L32.649 18h-3.435l-1.891-9.187h-.052L24.84 18h-5.585l4.701-18zM48.99 0h5.847l-4.702 18H44.29l4.7-18zM23.576 0h-7.304L1.682 11.52 0 18h5.551l1.301-4.967 2.741-1.977L13.15 18h6.02L13.825 7.78 23.576 0z" fill="#121C3E"/><path d="M14.312 0h-9.61l-2.5 9.579L14.312 0z" fill="#BA1D3C"/><path d="M56.815 11.733h1.491v1.976l1.579-1.976h1.995l-1.77 1.958 1.84 3.276h-1.84l-1.023-2.154-.78.872v1.282h-1.492v-5.234z" fill="#1C1C1C"/><path d="M61.914 14.35c0-.855.226-1.514.66-1.994.433-.481 1.058-.712 1.838-.712.798 0 1.423.231 1.856.694.434.463.66 1.122.66 1.958 0 .606-.105 1.104-.278 1.496-.19.392-.468.694-.833.908-.364.214-.815.32-1.335.32-.538 0-1.007-.089-1.354-.285-.364-.195-.642-.48-.867-.89-.243-.374-.347-.872-.347-1.495zm1.492 0c0 .534.087.908.278 1.14.173.23.433.338.746.338.33 0 .572-.107.745-.339.174-.231.26-.623.26-1.21 0-.481-.086-.855-.277-1.069-.19-.231-.434-.338-.746-.338a.895.895 0 00-.728.338c-.191.232-.278.623-.278 1.14zm4.25 2.617v-5.234h2.498c.469 0 .816.035 1.059.124.242.09.433.25.59.481.156.232.225.517.225.855 0 .285-.052.534-.174.748a1.65 1.65 0 01-.468.516c-.121.089-.312.16-.52.214.173.07.312.124.381.195.052.054.14.143.243.285.104.143.174.25.208.32l.729 1.514h-1.683l-.798-1.602c-.104-.214-.19-.338-.277-.41a.535.535 0 00-.365-.124h-.139v2.118h-1.509zm1.492-3.115h.625c.07 0 .208-.018.399-.072.104-.017.173-.07.243-.16a.475.475 0 00.086-.302.503.503 0 00-.156-.392c-.104-.09-.295-.143-.555-.143h-.66v1.069h.018zm3.627-2.119H76.8v1.122h-2.515v.836h2.324v1.069h-2.324v1.032h2.585v1.175h-4.095v-5.234zm7.753 4.38h-1.7l-.243.854H77.06l1.821-5.234h1.648l1.804 5.234h-1.56l-.244-.854zm-.33-1.14l-.52-1.887-.538 1.887h1.06zm4.634-3.24h1.978l.763 3.187.763-3.187h1.96v5.234h-1.231V12.98l-.954 3.988H87l-.955-3.988v3.988h-1.214v-5.234zm6.279 0h4.025v1.122h-2.515v.836h2.324v1.069h-2.324v1.032h2.584v1.175h-4.094v-5.234zm4.805 0h2.22c.434 0 .799.071 1.059.196.277.124.486.32.676.552.174.231.295.516.382.837.087.32.121.658.121 1.014 0 .57-.052.997-.173 1.3a2.36 2.36 0 01-.486.783 1.514 1.514 0 01-.676.41c-.33.089-.625.142-.885.142h-2.22v-5.234h-.018zm1.492 1.175v2.849h.364c.313 0 .538-.036.677-.107.139-.071.243-.214.312-.392.07-.196.104-.48.104-.908 0-.552-.087-.926-.243-1.14-.173-.213-.45-.302-.832-.302h-.382zm3.696-1.175h1.509v5.234h-1.509v-5.234zm5.691 3.08l1.318.427a2.74 2.74 0 01-.416.997 1.952 1.952 0 01-.712.606c-.277.142-.642.195-1.075.195-.521 0-.954-.089-1.301-.249-.33-.16-.625-.463-.868-.872-.243-.41-.364-.944-.364-1.603 0-.872.208-1.53.642-1.994.434-.463 1.023-.694 1.804-.694.607 0 1.093.142 1.44.41.347.267.607.676.781 1.228l-1.319.32a2.383 2.383 0 00-.139-.338.954.954 0 00-.312-.285.788.788 0 00-.399-.107c-.347 0-.59.143-.781.446-.138.213-.208.57-.208 1.032 0 .57.087.98.243 1.193a.84.84 0 00.694.32c.295 0 .503-.088.642-.267.156-.178.26-.427.33-.765zm4.891 1.3h-1.7l-.243.854h-1.526l1.821-5.234h1.648l1.805 5.234h-1.562l-.243-.854zm-.312-1.14l-.52-1.887-.538 1.887h1.058zm2.497-3.24h1.492v3.935h2.342v1.282h-3.834v-5.217zm6.576 0h1.51v5.234h-1.51v-5.234zm2.481 0h1.388l1.821 2.884v-2.884h1.405v5.234h-1.405l-1.804-2.884v2.884h-1.405v-5.234zm5.256 3.507l1.422-.089c.035.25.087.445.191.57.139.196.364.303.642.303.208 0 .381-.054.486-.16a.477.477 0 00.173-.375.48.48 0 00-.156-.356c-.104-.106-.364-.213-.763-.302-.66-.16-1.128-.374-1.406-.641a1.35 1.35 0 01-.416-1.015c0-.267.069-.516.208-.766a1.58 1.58 0 01.642-.57c.295-.142.694-.213 1.197-.213.625 0 1.093.125 1.423.374.329.25.52.64.572 1.175l-1.405.089c-.035-.231-.121-.41-.243-.499-.121-.106-.277-.16-.503-.16-.173 0-.312.036-.399.125-.087.089-.139.178-.139.285 0 .089.035.16.104.231.07.071.243.143.503.196.66.16 1.128.303 1.406.463.277.16.485.356.624.587.122.232.191.481.191.766 0 .338-.087.641-.26.926a1.622 1.622 0 01-.729.64c-.312.143-.694.214-1.162.214-.816 0-1.388-.178-1.718-.516-.277-.32-.451-.765-.485-1.282zm4.683-3.507h4.545v1.282h-1.526v3.934h-1.492v-3.934h-1.527v-1.282zm5.17 0h1.509v5.234h-1.509v-5.234zm2.135 0h4.545v1.282h-1.527v3.934h-1.492v-3.934h-1.526v-1.282zm8.257 0h1.492v3.116c0 .302-.052.605-.139.872a1.814 1.814 0 01-.416.712 1.543 1.543 0 01-.59.427 3.04 3.04 0 01-1.041.178c-.243 0-.485-.017-.763-.053-.278-.035-.52-.107-.694-.213a1.743 1.743 0 01-.52-.446 1.557 1.557 0 01-.313-.605c-.086-.338-.138-.623-.138-.89v-3.098h1.492v3.187c0 .285.069.516.225.659.139.16.347.249.607.249s.451-.09.607-.232c.139-.16.226-.373.226-.676v-3.187h-.035zm2.03 0h4.545v1.282h-1.526v3.934h-1.492v-3.934h-1.527v-1.282zm5.1 0h4.024v1.122h-2.515v.836h2.324v1.069h-2.324v1.032h2.585v1.175h-4.094v-5.234zM79.853 2.599h-1.006V.569h-2.55v7.638h2.55v-4.45h1.006V2.598zm-3.92 1.567c0-.659-.416-1.264-1.11-1.727h.902v-1.14h-3.088V.48h-2.55v.802h-3.244l1.058 1.14c-.694.462-1.11 1.067-1.11 1.726 0 1.46 2.047 2.635 4.58 2.635 2.515.018 4.562-1.157 4.562-2.617zm-6.28 0c0-.783.764-1.407 1.718-1.407s1.717.624 1.717 1.407c0 .766-.763 1.406-1.717 1.406-.954-.017-1.718-.64-1.718-1.406zm.381 2.991h-2.55V9.01c0 .623.469 1.14 1.059 1.14H78.83V9.01h-8.813V7.157h.017zm54.491 0h-2.55v1.851c0 .624.468 1.14 1.058 1.14h10.461v-1.14h-8.969V7.157zM130.944.57v.979h-1.492l1.058 1.139h.434v.837h-1.44c.017-.107.034-.214.034-.32 0-1.46-1.786-2.636-3.99-2.636-2.203 0-4.007 1.175-4.007 2.635 0 1.46 1.787 2.635 4.007 2.635 2.013 0 3.695-.997 3.956-2.26l1.023 1.103h.434v3.08h2.55V.57h-2.567zm-5.413 4.059c-.833 0-1.492-.623-1.492-1.407 0-.765.677-1.406 1.492-1.406.833 0 1.492.623 1.492 1.406.017.766-.659 1.407-1.492 1.407zm29.44 4.166V5.822h-2.915v2.973h-5.482l1.267 1.353h11.883V8.795h-4.753z" fill="#1C1C1C"/><path d="M152.976 1.709h1.37l3.99 4.86h1.666l-4.233-5.074.867-.926h-5.916l-3.695 6h3.002l2.949-4.86zm-32.373.89h-1.006V.569h-2.55v5.947h2.55v-2.76h1.006V2.6zM107.628 3.97c0 1.353 1.96 2.44 4.371 2.44 2.412 0 4.372-1.087 4.372-2.44 0-.57-.364-1.104-.954-1.513h1.024V1.299h-3.175V.48h-2.55v.802h-3.175l1.058 1.121c-.607.445-.971.98-.971 1.567zm4.354 1.282c-.902 0-1.631-.588-1.631-1.3 0-.712.729-1.3 1.631-1.3s1.631.588 1.631 1.3c.017.73-.729 1.3-1.631 1.3zm6.557 1.905h-10.738l1.058 1.14h8.188v1.851h2.55V8.315c0-.641-.468-1.158-1.058-1.158zm28.156-1.727h-1.214c.416 0 .763-.374.763-.837V1.71c0-.641-.468-1.14-1.058-1.14h-10.825l1.058 1.14h8.275v2.884c0 .463-.347.82-.763.837h-8.761l1.058 1.14h4.094v3.578h2.55v-3.58h4.806V5.43h.017zm-53.9-.356V3.917H80.287l1.058 1.139h4.303v1.745h-5.049l1.059 1.14h8.275v2.207h2.55v-2.19c0-.64-.469-1.14-1.059-1.14h-3.226V5.075h4.597z" fill="#1C1C1C"/><path d="M89.933 1.709v1.37c0 .464-.347.838-.781.838h2.55c.434 0 .763-.374.763-.837V1.709c0-.641-.468-1.14-1.058-1.14H80.582l1.058 1.14h8.293zM98.486 6.8c2.533 0 4.563-1.406 4.563-3.133S101.002.534 98.486.534c-2.533 0-4.58 1.406-4.58 3.133s2.047 3.134 4.58 3.134zm0-4.949c1.024 0 1.856.801 1.856 1.798s-.832 1.799-1.856 1.799c-1.023 0-1.856-.802-1.856-1.799 0-.997.833-1.798 1.856-1.798z" fill="#1C1C1C"/><path d="M103.569.57v5.18c0 .98-.746 1.78-1.665 1.78h-8.57l1.058 1.14h7.911c.503 0 .937-.231 1.249-.605v2.083h2.55V.569h-2.533zm-44.065.694v1.353h.364V1.264h.798v4.023h-.797V3.311h-.365v1.976h-.763v-.819l-.52.481a1.876 1.876 0 01-.521-.32 1.407 1.407 0 01-.26-.303.836.836 0 01-.26.303 1.873 1.873 0 01-.52.32l-.521-.498a1.32 1.32 0 00.59-.517c.156-.249.242-.587.242-.997V1.922h-.468V1.3h1.822v.623h-.469v1.015c0 .428.07.748.226 1.015.138.214.347.392.607.516V1.264h.815zm4.683.036v.694h-1.596v.89h1.857V1.246h1.075v.997h.451v.677h-.45v1.193h-1.076V3.56h-2.273c-.208 0-.382-.054-.486-.143-.104-.089-.156-.231-.156-.41V1.3h2.654zm-1.214 3.293h2.585v.677h-3.001c-.208 0-.382-.054-.486-.143a.544.544 0 01-.156-.41v-.871h1.075v.747h-.017zm-5.377 1.585v.285h.485v-.285h1.041V6.8h.4v-.676h1.075v2.154H59.52v-.784h-.399v.66h-1.908c-.208 0-.382-.054-.486-.143a.527.527 0 01-.173-.41V6.178h1.04zm.295 2.243v.196h1.648v-.196h1.075v1.727h-3.14c-.208 0-.381-.053-.486-.142-.104-.09-.156-.232-.156-.41V8.421h1.059zm-.295-1.3v.374h.485v-.373h-.485zm.295 2.137v.267h1.648v-.267H57.89zm5.985-2.813c.242.213.364.48.364.8 0 .321-.122.588-.364.802-.26.25-.625.374-1.059.374-.45 0-.798-.125-1.058-.374-.243-.214-.347-.48-.347-.801 0-.32.121-.588.347-.801.26-.25.625-.374 1.058-.374.434 0 .798.124 1.059.374zM62.869 9.47h2.741v.677h-3.157c-.226 0-.382-.053-.486-.143a.527.527 0 01-.173-.409v-.89h1.075v.765zm-.364-2.635a.752.752 0 00-.104.41c0 .16.035.303.104.41.07.124.173.177.312.177a.328.328 0 00.313-.178.712.712 0 00.104-.41.752.752 0 00-.105-.409.385.385 0 00-.312-.178.329.329 0 00-.312.178zm3.07-.712V8.99H64.5V6.124h1.076z" fill="#1C1C1C"/></g><defs><clipPath id="clip0_1158_36695"><path fill="#fff" d="M0 0h160v18H0z"/></clipPath></defs></svg>
